public/images/logo-rectangle.svg

<svg width="110" height="75" viewBox="0 0 110 75" fill="none" xmlns="http://www.w3.org/2000/svg">
<path d="M60.8068 10.7188L61.1974 10.7344C62.5516 10.776 63.2391 11.2292 63.2599 12.0938V12.1094C63.2599 12.8906 62.838 13.3906 61.9943 13.6094L60.8849 14.1094C60.6245 14.2865 60.3745 14.6667 60.1349 15.25C58.6245 16.625 57.6193 17.6771 57.1193 18.4062C56.9005 18.5729 56.5151 19.0885 55.963 19.9531C55.4318 20.3073 55.1609 20.6875 55.1505 21.0938C55.1505 21.1354 55.4213 21.474 55.963 22.1094C56.1922 22.9427 56.3953 23.5208 56.5724 23.8438L57.6818 25.1562L57.7286 25.4062C58.1766 26.3125 58.6349 27.0052 59.1036 27.4844L60.338 29.3594C60.588 29.7448 60.9109 29.974 61.3068 30.0469C62.2859 30.0781 62.9943 30.3854 63.4318 30.9688C63.338 32.2812 62.9318 32.974 62.213 33.0469L61.3536 33.3906L60.4786 33.2344L58.7286 33.4219L57.7755 33.1562L56.9786 33.25C55.6349 32.8229 54.963 32.2188 54.963 31.4375V31.375C54.963 30.7917 55.4005 30.3542 56.2755 30.0625V30.0469C56.1401 29.401 55.812 28.7396 55.2911 28.0625C54.9786 27.1042 54.6557 26.375 54.3224 25.875C54.0411 25.5312 53.7599 25.1042 53.4786 24.5938C52.9995 23.9583 52.6974 23.6406 52.5724 23.6406L52.3536 23.6719L51.9943 24.2969C51.6088 24.6615 51.4109 25.0104 51.4005 25.3438L51.6818 29.0625C51.9109 29.9062 52.213 30.3333 52.588 30.3438C53.5463 30.8958 54.0255 31.3854 54.0255 31.8125V31.8438C54.0047 32.4792 53.4161 33.0469 52.2599 33.5469L51.7755 33.6562L50.5255 33.2344H50.2911L49.1661 33.4531C48.7286 33.3177 48.0255 33.1875 47.0568 33.0625C46.2026 32.5521 45.7755 32.0521 45.7755 31.5625V31.5312C45.7963 30.9583 46.187 30.5625 46.9474 30.3438C47.7182 30.125 48.1557 29.75 48.2599 29.2188C48.3432 28.7292 48.437 28.2188 48.5411 27.6875C48.5411 27.3958 48.5255 27.0729 48.4943 26.7188L48.4474 25.5312L48.7599 22.3906L48.8693 20.0938L48.9318 19.5781L48.7286 18.4688L48.8224 17.4375L48.6036 14.4688V14.4219C48.6036 13.9323 48.4734 13.6875 48.213 13.6875C48.1818 13.6875 48.0463 13.7031 47.8068 13.7344L46.6661 12.7031C46.7078 11.6094 47.4891 10.9844 49.0099 10.8281H49.3536L50.4474 11.0469H50.463L51.7755 10.7812L53.6974 11.1875C54.187 11.6562 54.4318 12.1094 54.4318 12.5469V12.5781C54.4318 12.9844 54.1818 13.2812 53.6818 13.4688C53.1818 13.6458 52.6453 13.8698 52.0724 14.1406V14.1562C52.0724 14.2292 52.0099 14.7917 51.8849 15.8438L52.1036 17.1094L52.0724 17.6875L51.9943 19.0625L52.2286 19.1875C52.3224 19.1146 52.4109 18.974 52.4943 18.7656C54.0359 17.4323 54.9318 16.3385 55.1818 15.4844C56.1297 14.5677 56.6088 13.9479 56.6193 13.625L56.0411 13.4531C55.687 12.9844 55.4891 12.5521 55.4474 12.1562V12.0781C55.4474 11.5156 56.0047 11.0833 57.1193 10.7812H57.3224L58.5724 10.9844C59.5411 10.8073 60.2599 10.7188 60.7286 10.7188H60.8068Z" fill="#F5EFE6"/>
<path d="M44.2286 36.5625H64.8068V38.9062H44.2286V36.5625Z" fill="#F5EFE6"/>
<path d="M41.2863 44.87C44.7542 44.87 47.5644 41.93 47.5644 38.31C47.5644 34.69 44.7542 31.75 41.2863 31.75C37.8183 31.75 35.0081 34.69 35.0081 38.31C35.0081 41.93 37.8183 44.87 41.2863 44.87Z" fill="#F5EFE6"/>
<path d="M69.2788 38.31C69.2788 54.23 56.9218 67.14 41.6749 67.14C26.428 67.14 14.071 54.23 14.071 38.31C14.071 22.39 26.428 9.48001 41.6749 9.48001" stroke="#F5EFE6" stroke-width="3" stroke-miterlimit="10"/>
<path d="M30.8924 22.4C27.6238 24.96 25.7603 28.56 24.5246 32.49C23.2092 36.4 22.5515 40.34 23.2989 44.4C22.412 42.49 21.9934 40.38 21.9137 38.25C21.6347 31.85 25.3019 25.53 30.9024 22.4H30.8924Z" fill="#F5EFE6"/>
<path d="M11.2708 58.71C20.8175 51.28 30.6832 44.07 40.6485 37.28L41.934 39.35C39.8014 40.83 36.6025 42.93 34.3902 44.38C26.8166 49.27 19.0337 54.26 11.2708 58.71Z" fill="#F5EFE6"/>
<path d="M41.4756 55.99C35.8751 56.36 30.2546 52.92 27.3049 47.23L27.9726 46.72C30.7928 52.1 36.1242 55.31 41.4257 54.92L41.4756 55.98V55.99Z" fill="#F5EFE6"/>
<path d="M53.1948 54.5C57.9781 50.13 61.0674 44.1 61.6454 37.85L63.1402 38.03C62.0241 44.44 58.4565 50.36 53.1948 54.5Z" fill="#F5EFE6"/>
<path d="M32.2477 44.97C27.6138 40.84 28.4111 33.97 33.6628 30.4C29.2183 34.54 28.7997 40.32 32.2477 44.97Z" fill="#F5EFE6"/>
<path d="M41.0172 75L39.8313 38.3L42.7212 38.32C42.6316 38.32 41.2564 75.18 41.0072 75H41.0172Z" fill="#F5EFE6"/>
<path d="M41.2862 0L42.7113 38.31L42.7512 39.35C42.7611 39.62 42.5419 39.84 42.2828 39.83L41.2962 39.8L9.09832 38.81C8.51037 38.79 8.5004 37.93 9.08836 37.89L39.9509 36.02L41.2862 0Z" fill="#F5EFE6"/>
<path d="M81.3468 38.31L41.2862 39.46C41.2862 39.46 41.2663 39.45 41.2663 39.44V37.03C41.2663 37.03 41.2862 37.01 41.2962 37.01L81.3468 38.27C81.3468 38.27 81.3766 38.31 81.3468 38.32V38.31Z" fill="#F5EFE6"/>
<path d="M13.5728 31.95C13.4532 32.52 12.5962 35.38 11.1113 36.72C9.35743 38.3 6.42763 38.3 5.9194 38.29C8.1018 38.29 11.201 38.34 13.3834 38.35C13.3037 36.61 13.6525 33.68 13.5827 31.94L13.5728 31.95Z" fill="#F5EFE6"/>
<path d="M6.79636 38.51C9.20796 38.81 11.1014 39.86 11.48 40.36C12.058 41.12 12.4168 42.4 13.1443 44.96C13.3037 45.54 14.091 47.8 14.1707 48.12C14.0212 45.42 13.224 40.95 13.0745 38.25C11.2708 38.32 8.60008 38.44 6.79636 38.51Z" fill="#F5EFE6"/>
<path d="M78.0283 38.49C74.2714 38.75 72.5873 39.95 71.7801 41.08C70.8932 42.32 70.2454 44.53 69.1293 48.29C69.1293 48.29 68.651 49.91 68.4716 49.88C68.4218 49.88 68.4417 49.67 68.3321 49.86C68.4118 48.4 69.5777 39.94 69.6575 38.48C72.4378 38.48 75.258 38.49 78.0383 38.48L78.0283 38.49Z" fill="#F5EFE6"/>
<path d="M18.366 23.18C20.1897 25.82 22.0034 28.46 23.827 31.1" stroke="#F5EFE6" stroke-miterlimit="10"/>
<path d="M25.5012 27.6L16.363 26.9" stroke="#F5EFE6" stroke-miterlimit="10"/>
<path d="M31.1117 29.46L26.3881 26.23L26.7768 25.74L31.1117 29.47V29.46Z" fill="#F5EFE6"/>
<path d="M31.6099 52.4C29.866 55.51 28.1121 58.61 26.3682 61.72" stroke="#F5EFE6" stroke-miterlimit="10"/>
<path d="M27.3049 62.93C29.1884 59.57 31.0718 56.22 32.9552 52.86" stroke="#F5EFE6" stroke-miterlimit="10"/>
<path d="M53.7728 64.23C53.1948 61.86 52.6268 59.49 52.0587 57.12C53.5934 58.85 55.1181 60.59 56.6527 62.32" stroke="#F5EFE6" stroke-miterlimit="10"/>
<path d="M58.586 47.56C61.0275 49.08 63.459 50.61 65.9005 52.13" stroke="#F5EFE6" stroke-miterlimit="10"/>
<path d="M63.6783 55.72C62.2533 54.12 60.8282 52.52 59.4032 50.92C61.3365 51.74 63.2697 52.56 65.203 53.38" stroke="#F5EFE6" stroke-miterlimit="10"/>
<path d="M51.0024 47.04C52.2381 45.27 52.567 42.85 51.9691 40.77C51.7698 40.1 51.4907 39.47 51.0822 38.93L54.6697 38.17C54.3209 41.5 53.0553 44.54 51.0722 47.1L50.9925 47.04H51.0024Z" fill="#F5EFE6"/>
<path d="M34.9981 39.4C35.038 39.61 35.0878 39.98 34.9682 40.42C34.7689 41.18 34.3305 41.64 34.1611 41.75C35.0878 41.4 35.915 40.98 36.8318 40.63C36.2139 40.22 35.606 39.81 34.9882 39.4H34.9981Z" fill="#F5EFE6"/>
<path d="M86.439 38.34L45.94 39.04L45.5912 37.5L86.439 38.34Z" fill="#F5EFE6"/>
<path d="M40.8378 37.19L40.509 38.74L0 38.47L40.8378 37.19Z" fill="#F5EFE6"/>
</svg>

<svg xmlns="http://www.w3.org/2000/svg" width="110" height="75" fill="none"><path fill="#F5EFE6" d="m60.807 10.719.39.015q2.032.063 2.063 1.36v.015q0 1.173-1.266 1.5l-1.11.5q-.39.267-.75 1.141-2.265 2.063-3.015 3.156-.328.25-1.156 1.547-.797.532-.812 1.14 0 .063.812 1.016.344 1.25.61 1.735l1.109 1.312.047.25q.672 1.36 1.375 2.078l1.234 1.875q.375.579.969.688 1.468.046 2.125.922-.14 1.968-1.219 2.078l-.86.344-.874-.157-1.75.188-.953-.266-.797.094q-2.016-.64-2.016-1.812v-.063q0-.874 1.313-1.312v-.016q-.204-.969-.985-1.985-.468-1.437-.969-2.187a8.5 8.5 0 0 1-.843-1.281q-.72-.953-.907-.953l-.218.03-.36.626q-.578.546-.593 1.047l.28 3.718q.345 1.266.907 1.282 1.438.828 1.438 1.468v.032q-.032.953-1.766 1.703l-.484.11-1.25-.423h-.235l-1.125.22q-.655-.204-2.11-.392-1.28-.765-1.28-1.5v-.03q.03-.861 1.171-1.188 1.157-.328 1.313-1.125.125-.735.281-1.532 0-.437-.047-.968l-.047-1.188.313-3.14.11-2.297.062-.516-.203-1.11.093-1.03-.218-2.97v-.046q0-.735-.391-.735-.047 0-.406.047l-1.14-1.03q.06-1.642 2.343-1.876h.344l1.093.219h.016l1.313-.266 1.921.406q.735.704.735 1.36v.031q0 .61-.75.89-.75.267-1.61.673v.015q0 .11-.187 1.688l.219 1.265-.032.578-.078 1.375.235.125q.14-.108.265-.421 2.313-2 2.688-3.282 1.422-1.374 1.437-1.859l-.578-.172q-.531-.703-.594-1.297v-.078q0-.843 1.672-1.297h.203l1.25.203q1.454-.265 2.157-.265zM44.229 36.563h20.578v2.343H44.229z"/><path fill="#F5EFE6" d="M41.286 44.87c3.468 0 6.278-2.94 6.278-6.56s-2.81-6.56-6.278-6.56-6.278 2.94-6.278 6.56 2.81 6.56 6.278 6.56"/><path stroke="#F5EFE6" stroke-miterlimit="10" stroke-width="3" d="M69.279 38.31c0 15.92-12.357 28.83-27.604 28.83S14.07 54.23 14.07 38.31 26.428 9.48 41.675 9.48"/><path fill="#F5EFE6" d="M30.892 22.4c-3.268 2.56-5.132 6.16-6.367 10.09-1.316 3.91-1.973 7.85-1.226 11.91-.887-1.91-1.306-4.02-1.385-6.15-.28-6.4 3.388-12.72 8.988-15.85zM11.27 58.71a577 577 0 0 1 29.378-21.43l1.286 2.07c-2.133 1.48-5.331 3.58-7.544 5.03-7.573 4.89-15.356 9.88-23.12 14.33"/><path fill="#F5EFE6" d="M41.476 55.99c-5.6.37-11.221-3.07-14.171-8.76l.668-.51c2.82 5.38 8.151 8.59 13.453 8.2l.05 1.06zM53.195 54.5c4.783-4.37 7.872-10.4 8.45-16.65l1.495.18c-1.116 6.41-4.684 12.33-9.945 16.47M32.248 44.97c-4.634-4.13-3.837-11 1.415-14.57-4.445 4.14-4.863 9.92-1.415 14.57"/><path fill="#F5EFE6" d="m41.017 75-1.186-36.7 2.89.02c-.09 0-1.465 36.86-1.714 36.68z"/><path fill="#F5EFE6" d="m41.286 0 1.425 38.31.04 1.04a.46.46 0 0 1-.468.48l-.987-.03-32.198-.99c-.588-.02-.598-.88-.01-.92l30.863-1.87z"/><path fill="#F5EFE6" d="m81.347 38.31-40.06 1.15s-.02-.01-.02-.02v-2.41s.02-.02.03-.02l40.05 1.26s.03.04 0 .05zM13.573 31.95c-.12.57-.977 3.43-2.462 4.77-1.754 1.58-4.683 1.58-5.192 1.57 2.183 0 5.282.05 7.464.06-.08-1.74.27-4.67.2-6.41z"/><path fill="#F5EFE6" d="M6.796 38.51c2.412.3 4.305 1.35 4.684 1.85.578.76.937 2.04 1.664 4.6.16.58.947 2.84 1.027 3.16-.15-2.7-.947-7.17-1.096-9.87-1.804.07-4.475.19-6.279.26M78.028 38.49c-3.757.26-5.44 1.46-6.248 2.59-.887 1.24-1.535 3.45-2.65 7.21 0 0-.479 1.62-.658 1.59-.05 0-.03-.21-.14-.02.08-1.46 1.246-9.92 1.326-11.38 2.78 0 5.6.01 8.38 0z"/><path stroke="#F5EFE6" stroke-miterlimit="10" d="M18.366 23.18c1.824 2.64 3.637 5.28 5.461 7.92M25.501 27.6l-9.138-.7"/><path fill="#F5EFE6" d="m31.112 29.46-4.724-3.23.389-.49 4.335 3.73z"/><path stroke="#F5EFE6" stroke-miterlimit="10" d="M31.61 52.4c-1.744 3.11-3.498 6.21-5.242 9.32M27.305 62.93c1.883-3.36 3.767-6.71 5.65-10.07M53.773 64.23c-.578-2.37-1.146-4.74-1.714-7.11 1.534 1.73 3.06 3.47 4.594 5.2M58.586 47.56c2.442 1.52 4.873 3.05 7.314 4.57M63.678 55.72l-4.275-4.8 5.8 2.46"/><path fill="#F5EFE6" d="M51.002 47.04c1.236-1.77 1.565-4.19.967-6.27-.2-.67-.478-1.3-.887-1.84l3.588-.76a17.47 17.47 0 0 1-3.598 8.93l-.08-.06zM34.998 39.4c.04.21.09.58-.03 1.02-.2.76-.638 1.22-.807 1.33.927-.35 1.754-.77 2.67-1.12-.617-.41-1.225-.82-1.843-1.23z"/><path fill="#F5EFE6" d="m86.439 38.34-40.499.7-.349-1.54zM40.838 37.19l-.329 1.55L0 38.47z"/></svg>
